packages/tokens/icons/touchpoint/size32Px.svg

<svg viewBox="0 0 32 32" fill="none" xmlns="http://www.w3.org/2000/svg" width="1em" height="1em"><path d="M11.5 21L11.5 9C11.5 8.17157 12.1716 7.5 13 7.5C13.8284 7.5 14.5 8.17157 14.5 9L14.5 18.5" stroke="currentColor" stroke-linecap="round"/><path d="M11.5 21L9.3481 17.2491C8.93389 16.5316 8.0165 16.2858 7.29906 16.7C6.58162 17.1142 6.33581 18.0316 6.75002 18.7491L10.6136 25.9728C11.7749 28.1443 14.0375 29.5 16.5 29.5V29.5L17.5 29.5C20.8137 29.5 23.5 26.8137 23.5 23.5V23.5L23.5 20.5" stroke="currentColor" stroke-linecap="round"/><path d="M14.5 19.5L14.5 15C14.5 14.1716 15.1716 13.5 16 13.5C16.8284 13.5 17.5 14.1716 17.5 15V19.5" stroke="currentColor" stroke-linecap="round"/><path d="M17.5 19.5V16C17.5 15.1716 18.1716 14.5 19 14.5C19.8284 14.5 20.5 15.1716 20.5 16V19.5" stroke="currentColor" stroke-linecap="round"/><path d="M20.5 19.5V17C20.5 16.1716 21.1716 15.5 22 15.5C22.8284 15.5 23.5 16.1716 23.5 17V21.5" stroke="currentColor" stroke-linecap="round"/><path d="M9.53513 11C9.19479 10.4117 9 9.72857 9 9C9 6.79086 10.7909 5 13 5C15.2091 5 17 6.79086 17 9C17 9.72857 16.8052 10.4117 16.4649 11" stroke="currentColor" stroke-linecap="round"/><path d="M18.6304 12.25C19.1835 11.2939 19.5 10.1839 19.5 9C19.5 5.41015 16.5899 2.5 13 2.5C9.41015 2.5 6.5 5.41015 6.5 9C6.5 10.1839 6.81653 11.2939 7.36958 12.25" stroke="currentColor" stroke-linecap="round"/></svg>

<svg xmlns="http://www.w3.org/2000/svg" fill="none" viewBox="0 0 32 32" width="1em" height="1em"><path stroke="currentColor" stroke-linecap="round" d="M11.5 21V9a1.5 1.5 0 0 1 3 0v9.5"/><path stroke="currentColor" stroke-linecap="round" d="m11.5 21-2.152-3.75a1.5 1.5 0 1 0-2.598 1.5l3.864 7.223A6.675 6.675 0 0 0 16.5 29.5v0h1a6 6 0 0 0 6-6v0-3"/><path stroke="currentColor" stroke-linecap="round" d="M14.5 19.5V15a1.5 1.5 0 0 1 3 0v4.5m0 0V16a1.5 1.5 0 0 1 3 0v3.5m0 0V17a1.5 1.5 0 0 1 3 0v4.5M9.535 11a4 4 0 1 1 6.93 0"/><path stroke="currentColor" stroke-linecap="round" d="M18.63 12.25a6.5 6.5 0 1 0-11.26 0"/></svg>
